Catalina-light/actions/16/node-segment-line.svg

<svg xmlns="http://www.w3.org/2000/svg" width="16" height="16" viewBox="0 0 16 16">
 <defs>
  <style id="current-color-scheme" type="text/css">
   .ColorScheme-Text { color:#5c616c; } .ColorScheme-Highlight { color:#5294e2; }
  </style>
 </defs>
 <path style="fill:currentColor" class="ColorScheme-Text" d="M 11 0 L 11 4.3222656 L 4.3222656 11 L 0 11 L 0 16 L 5 16 L 5 11.736328 L 11.736328 5 L 16 5 L 16 0 L 11 0 z"/>
</svg>

<svg width="16" height="16" viewBox="0 0 16 16" xmlns="http://www.w3.org/2000/svg">
<defs>
<style id="current-color-scheme" type="text/css">.ColorScheme-Text { color:#5c616c; } .ColorScheme-Highlight { color:#5294e2; }</style>
</defs>
<path class="ColorScheme-Text" d="m11 0v4.3223l-6.6777 6.6777h-4.3223v5h5v-4.2637l6.7363-6.7363h4.2637v-5h-5z" fill="#363636"/>
</svg>
